Adwaita++/devices/scalable/gnome-dev-printer-new.svg

<svg fill="none" height="128" viewBox="0 0 128 128" width="128" xmlns="http://www.w3.org/2000/svg" xmlns:xlink="http://www.w3.org/1999/xlink">
  <filter id="filter0_f" color-interpolation-filters="sRGB" filterUnits="userSpaceOnUse" height="84.9239" width="123.385" x="3.30769" y="26.6084">
    <feFlood flood-opacity="0" result="BackgroundImageFix"/>
    <feBlend in="SourceGraphic" in2="BackgroundImageFix" mode="normal" result="shape"/>
    <feGaussianBlur result="effect1_foregroundBlur" stdDeviation="2"/>
  </filter>
  <filter id="filter1_f" color-interpolation-filters="sRGB" filterUnits="userSpaceOnUse" height="80.9239" width="119.385" x="5.30769" y="27.6469">
    <feFlood flood-opacity="0" result="BackgroundImageFix"/>
    <feBlend in="SourceGraphic" in2="BackgroundImageFix" mode="normal" result="shape"/>
    <feGaussianBlur result="effect1_foregroundBlur" stdDeviation="1"/>
  </filter>
  <filter id="filter2_f" color-interpolation-filters="sRGB" filterUnits="userSpaceOnUse" height="116.254" width="93.0994" x="18.4503" y="1.58727">
    <feFlood flood-opacity="0" result="BackgroundImageFix"/>
    <feBlend in="SourceGraphic" in2="BackgroundImageFix" mode="normal" result="shape"/>
    <feGaussianBlur result="effect1_foregroundBlur" stdDeviation="2.00044"/>
  </filter>
  <linearGradient id="paint0_linear" gradientUnits="userSpaceOnUse" x1="66.9233" x2="66.9233" y1="31.57" y2="104.647">
    <stop offset="0" stop-color="#fff"/>
    <stop offset=".125" stop-color="#fff" stop-opacity=".098039"/>
    <stop offset=".925" stop-color="#fff" stop-opacity=".098039"/>
    <stop offset="1" stop-color="#fff" stop-opacity=".498039"/>
  </linearGradient>
  <linearGradient id="paint1_linear" gradientUnits="userSpaceOnUse" x1="65.0003" x2="65.0003" y1="29.6469" y2="102.724">
    <stop offset="0" stop-color="#fff"/>
    <stop offset=".125" stop-color="#fff" stop-opacity=".098039"/>
    <stop offset=".925" stop-opacity=".098039"/>
    <stop offset="1" stop-opacity=".498039"/>
  </linearGradient>
  <g filter="url(#filter0_f)" opacity=".2">
    <path d="m122.692 95.5131c0 12.0189-4.703 11.8789-16.827 12.0189h-81.7303c-12.1238-.14-16.82701 0-16.82701-12.0189v-52.8854c0-12.0193 4.70321-11.8791 16.82701-12.0193h81.7303c12.124.1402 16.827 0 16.827 12.0193z" fill="#000"/>
  </g>
  <g filter="url(#filter1_f)" opacity=".1">
    <path d="m122.692 94.5515c0 12.0195-4.703 11.8795-16.827 12.0195h-81.7303c-12.1238-.14-16.82701 0-16.82701-12.0195v-52.8853c0-12.0193 4.70321-11.8791 16.82701-12.0193h81.7303c12.124.1402 16.827 0 16.827 12.0193z" fill="#000"/>
  </g>
  <path d="m122.692 94.5515c0 12.0195-4.703 11.8795-16.827 12.0195h-81.7303c-12.1238-.14-16.82701 0-16.82701-12.0195v-52.8853c0-12.0193 4.70321-11.8791 16.82701-12.0193h81.7303c12.124.1402 16.827 0 16.827 12.0193z" fill="#000" opacity=".5" stroke="url(#paint0_linear)" stroke-width="4"/>
  <path d="m122.692 94.5515c0 12.0195-4.703 11.8795-16.827 12.0195h-81.7303c-12.1238-.14-16.82701 0-16.82701-12.0195v-52.8853c0-12.0193 4.70321-11.8791 16.82701-12.0193h81.7303c12.124.1401 16.827 0 16.827 12.0193z" fill="#67666d"/>
  <path d="m122.692 94.5515c0 12.0195-4.703 11.8795-16.827 12.0195h-81.7303c-12.1238-.14-16.82701 0-16.82701-12.0195v-52.8853c0-12.0193 4.70321-11.8791 16.82701-12.0193h81.7303c12.124.1402 16.827 0 16.827 12.0193z" opacity=".3" stroke="url(#paint1_linear)" stroke-width="4"/>
  <path d="m107.301 33.4853h-84.6148c-2.1246 0-3.8468.807-3.8468 1.8026v.2416c0 .9956 1.7222 1.8026 3.8468 1.8026h84.6148c2.124 0 3.846-.807 3.846-1.8026v-.2416c0-.9956-1.722-1.8026-3.846-1.8026z" fill="#000021" opacity=".3"/>
  <path d="m107.301 83.4916h-84.6148c-2.1246 0-3.8468 1.7222-3.8468 3.8468v11.5366c0 2.125 1.7222 3.847 3.8468 3.847h84.6148c2.124 0 3.846-1.722 3.846-3.847v-11.5366c0-2.1246-1.722-3.8468-3.846-3.8468z" fill="#000021" opacity=".3"/>
  <path d="m98.2679 35.3932h-66.8761c-1.2524 0-2.2677.4312-2.2677.9631v1.9243c0 .5319 1.0153.9631 2.2677.9631h66.8761c1.2525 0 2.2681-.4312 2.2681-.9631v-1.9243c0-.5319-1.0156-.9631-2.2681-.9631z" fill="#000" opacity=".3"/>
  <path d="m96.002 81.6018h-62.3443c-2.5038 0-4.5336 2.2991-4.5336 5.1351v8.9837c0 2.836 2.0298 5.1354 4.5336 5.1354h62.3443c2.5039 0 4.534-2.2994 4.534-5.1354v-8.9837c0-2.836-2.0301-5.1351-4.534-5.1351z" fill="#000" opacity=".3"/>
  <g filter="url(#filter2_f)" opacity=".4">
    <path d="m30.1835 5.58815h48.3267l29.0378 28.91665.001 71.5812c0 4.284-3.491 7.754-7.7752 7.754h-69.5904c-4.2836 0-7.7322-3.449-7.7322-7.732v-92.7876c0-4.28365 3.4486-7.73225 7.7322-7.73225z" fill="#000"/>
  </g>
  <path d="m30.1835 5.3172h48.3267l29.0378 28.9166.001 71.5812c0 4.284-3.491 7.754-7.7752 7.754h-69.5904c-4.2836 0-7.7322-3.449-7.7322-7.732v-92.7875c0-4.28371 3.4486-7.7323 7.7322-7.7323z" fill="#f6f5f4"/>
  <path d="m78.5102 6.2787v21.2637c0 4.2837 3.4897 7.6583 7.7733 7.6583l21.2645-.0054v-.9615z" fill="#000" opacity=".25"/>
  <path d="m78.5102 5.3172v21.2637c0 4.2837 3.4897 7.6583 7.7733 7.6583l21.2645-.0054z" fill="#deddda"/>
  <path d="m22.6924 83.4933c-2.1308 0-3.8462 1.7154-3.8462 3.8462v.4807c0-2.1307 1.7154-3.8462 3.8462-3.8462h84.6156c2.131 0 3.846 1.7155 3.846 3.8462v-.4807c0-2.1308-1.715-3.8462-3.846-3.8462z" fill="#000" opacity=".2"/>
  <path d="m18.8594 35.1758c-.006.04-.0131.0796-.0131.1201v.2404c0 .9988 1.7154 1.8028 3.8461 1.8028h84.6156c2.131 0 3.846-.804 3.846-1.8028v-.2404c0-.0405-.008-.0803-.013-.1201-.131.9421-1.789 1.6827-3.833 1.6827h-84.6156c-2.0443 0-3.7014-.7406-3.8331-1.6827z" fill="#fff" opacity=".6"/>
  <path d="m111.147 37.3375h-92.3076v46.1541h92.3076z" fill="#67666d"/>
  <path d="m122.692 94.551c0 12.019-4.703 11.879-16.827 12.019h-81.7303c-12.1238-.14-16.82698 0-16.82698-12.019v-2.8851c0-12.0193 4.70318-11.8791 16.82698-12.0193h81.7303c12.124.1401 16.827 0 16.827 12.0193z" fill="#fff" opacity=".2"/>
  <g fill="#979797">
    <path d="m92.8798 84.356h-55.7596v4.4518h55.7596z"/>
    <path d="m92.8798 93.2597h-55.7596v4.4518h55.7596z"/>
    <path d="m92.8798 102.163h-55.7596v4.452h55.7596z"/>
  </g>
  <path d="m107.299 71.0009c0-2.6554-2.153-4.808-4.808-4.808-2.6555 0-4.8082 2.1526-4.8082 4.808s2.1527 4.808 4.8082 4.808c2.655 0 4.808-2.1526 4.808-4.808z" fill="#000" opacity=".2"/>
  <path d="m102.5 73.8779c1.594 0 2.885-1.2915 2.885-2.8847 0-1.5931-1.291-2.8846-2.885-2.8846-1.593 0-2.8842 1.2915-2.8842 2.8846 0 1.5932 1.2912 2.8847 2.8842 2.8847z" fill="#7eff00" fill-opacity=".514286"/>
  <path d="m102.5 68.1086c-1.598 0-2.8842 1.2865-2.8842 2.8846 0 .0609.0055.1204.0091.1803.0675-1.0981.7431-2.024 1.6961-2.4508-.165.2343-.263.519-.263.8282 0 .7991.643 1.4423 1.442 1.4423s1.443-.6432 1.443-1.4423c0-.3092-.099-.5939-.263-.8282.953.4268 1.628 1.3527 1.696 2.4508.004-.0599.009-.1194.009-.1803 0-1.5981-1.287-2.8846-2.885-2.8846z" fill="#fff" opacity=".5"/>
  <path d="m93.8524 71.0009c0-2.6554-2.1526-4.808-4.808-4.808s-4.808 2.1526-4.808 4.808 2.1526 4.808 4.808 4.808 4.808-2.1526 4.808-4.808z" fill="#000" opacity=".2"/>
  <path d="m91.9227 70.9864v-.0018c0-1.5927-1.2911-2.8838-2.8838-2.8838h-.0018c-1.5926 0-2.8837 1.2911-2.8837 2.8838v.0018c0 1.5926 1.2911 2.8837 2.8837 2.8837h.0018c1.5927 0 2.8838-1.2911 2.8838-2.8837z" fill="#f67000"/>
  <path d="m89.0388 68.1086c-1.5981 0-2.8846 1.2865-2.8846 2.8846 0 .0609.0054.1203.0091.1803.0675-1.0981.7434-2.0241 1.6958-2.4508-.1644.2343-.2626.5189-.2626.8282 0 .799.6432 1.4423 1.4423 1.4423.799 0 1.4423-.6433 1.4423-1.4423 0-.3093-.0983-.5939-.2627-.8282.9525.4267 1.6284 1.3527 1.6958 2.4508.0038-.06.0091-.1194.0091-.1803 0-1.5981-1.2865-2.8846-2.8846-2.8846z" fill="#fff" opacity=".5"/>
  <path d="m80.3878 71.0009c0-2.6554-2.1526-4.808-4.808-4.808s-4.808 2.1526-4.808 4.808 2.1526 4.808 4.808 4.808 4.808-2.1526 4.808-4.808z" fill="#000" opacity=".2"/>
  <path d="m75.5772 73.8779c1.5932 0 2.8847-1.2915 2.8847-2.8847 0-1.5931-1.2915-2.8846-2.8847-2.8846-1.5931 0-2.8846 1.2915-2.8846 2.8846 0 1.5932 1.2915 2.8847 2.8846 2.8847z" fill="#f82d43"/>
  <path d="m75.5772 68.1086c-1.598 0-2.8846 1.2865-2.8846 2.8846 0 .0609.0055.1204.0092.1803.0674-1.0981.7433-2.024 1.6958-2.4508-.1644.2343-.2627.519-.2627.8282 0 .7991.6433 1.4423 1.4423 1.4423.7991 0 1.4424-.6432 1.4424-1.4423 0-.3092-.0983-.5939-.2627-.8282.9525.4268 1.6284 1.3527 1.6958 2.4508.0037-.0599.0092-.1194.0092-.1803 0-1.5981-1.2866-2.8846-2.8847-2.8846z" fill="#fff" opacity=".5"/>
  <path d="m103.63 117.712c10.711 0 19.394-8.683 19.394-19.3944 0-10.711-8.683-19.394-19.394-19.394-10.7106 0-19.3936 8.683-19.3936 19.394 0 10.7114 8.683 19.3944 19.3936 19.3944z" fill="#000" opacity=".2"/>
  <path d="m103.63 116.499c10.711 0 19.394-8.683 19.394-19.3935 0-10.711-8.683-19.394-19.394-19.394-10.7106 0-19.3936 8.683-19.3936 19.394 0 10.7105 8.683 19.3935 19.3936 19.3935z" fill="#33d17a"/>
  <path d="m101.206 84.9842v9.697h-9.6969v4.8485h9.6969v9.6973h4.849v-9.6973h9.697v-4.8485h-9.697v-9.697z" fill="#f6f5f4"/>
</svg>

<svg width="128" height="128" viewBox="0 0 128 128" fill="none" xmlns="http://www.w3.org/2000/svg">
<g opacity="0.2" filter="url(#filter0_f)">
<path d="M122.692 95.5131C122.692 107.532 117.989 107.392 105.865 107.532H24.1347C12.0109 107.392 7.30769 107.532 7.30769 95.5131V42.6277C7.30769 30.6084 12.0109 30.7486 24.1347 30.6084H105.865C117.989 30.7486 122.692 30.6084 122.692 42.6277V95.5131Z" fill="black"/>
</g>
<g opacity="0.1" filter="url(#filter1_f)">
<path d="M122.692 94.5515C122.692 106.571 117.989 106.431 105.865 106.571H24.1347C12.0109 106.431 7.30769 106.571 7.30769 94.5515V41.6662C7.30769 29.6469 12.0109 29.7871 24.1347 29.6469H105.865C117.989 29.7871 122.692 29.6469 122.692 41.6662V94.5515Z" fill="black"/>
</g>
<path opacity="0.5" d="M122.692 94.5515C122.692 106.571 117.989 106.431 105.865 106.571H24.1347C12.0109 106.431 7.30769 106.571 7.30769 94.5515V41.6662C7.30769 29.6469 12.0109 29.7871 24.1347 29.6469H105.865C117.989 29.7871 122.692 29.6469 122.692 41.6662V94.5515Z" fill="black" stroke="url(#paint0_linear)" stroke-width="4"/>
<path d="M122.692 94.5515C122.692 106.571 117.989 106.431 105.865 106.571H24.1347C12.0109 106.431 7.30769 106.571 7.30769 94.5515V41.6662C7.30769 29.6469 12.0109 29.7871 24.1347 29.6469H105.865C117.989 29.787 122.692 29.6469 122.692 41.6662V94.5515Z" fill="#67666D"/>
<path opacity="0.3" d="M122.692 94.5515C122.692 106.571 117.989 106.431 105.865 106.571H24.1347C12.0109 106.431 7.30769 106.571 7.30769 94.5515V41.6662C7.30769 29.6469 12.0109 29.7871 24.1347 29.6469H105.865C117.989 29.7871 122.692 29.6469 122.692 41.6662V94.5515Z" stroke="url(#paint1_linear)" stroke-width="4"/>
<path opacity="0.3" d="M107.301 33.4853H22.6862C20.5616 33.4853 18.8394 34.2923 18.8394 35.2879V35.5295C18.8394 36.5251 20.5616 37.3321 22.6862 37.3321H107.301C109.425 37.3321 111.147 36.5251 111.147 35.5295V35.2879C111.147 34.2923 109.425 33.4853 107.301 33.4853Z" fill="#000021"/>
<path opacity="0.3" d="M107.301 83.4916H22.6862C20.5616 83.4916 18.8394 85.2138 18.8394 87.3384V98.875C18.8394 101 20.5616 102.722 22.6862 102.722H107.301C109.425 102.722 111.147 101 111.147 98.875V87.3384C111.147 85.2138 109.425 83.4916 107.301 83.4916Z" fill="#000021"/>
<path opacity="0.3" d="M98.2679 35.3932H31.3918C30.1394 35.3932 29.1241 35.8244 29.1241 36.3563V38.2806C29.1241 38.8125 30.1394 39.2437 31.3918 39.2437H98.2679C99.5204 39.2437 100.536 38.8125 100.536 38.2806V36.3563C100.536 35.8244 99.5204 35.3932 98.2679 35.3932Z" fill="black"/>
<path opacity="0.3" d="M96.002 81.6018H33.6577C31.1539 81.6018 29.1241 83.9009 29.1241 86.7369V95.7206C29.1241 98.5566 31.1539 100.856 33.6577 100.856H96.002C98.5059 100.856 100.536 98.5566 100.536 95.7206V86.7369C100.536 83.9009 98.5059 81.6018 96.002 81.6018Z" fill="black"/>
<g opacity="0.4" filter="url(#filter2_f)">
<path d="M30.1835 5.58815H78.5102L107.548 34.5048L107.549 106.086C107.549 110.37 104.058 113.84 99.7738 113.84H30.1834C25.8998 113.84 22.4512 110.391 22.4512 106.108V13.3204C22.4512 9.03675 25.8998 5.58815 30.1834 5.58815H30.1835Z" fill="black"/>
</g>
<path d="M30.1835 5.3172H78.5102L107.548 34.2338L107.549 105.815C107.549 110.099 104.058 113.569 99.7738 113.569H30.1834C25.8998 113.569 22.4512 110.12 22.4512 105.837V13.0495C22.4512 8.76579 25.8998 5.3172 30.1834 5.3172H30.1835Z" fill="#F6F5F4"/>
<path opacity="0.25" d="M78.5102 6.2787V27.5424C78.5102 31.8261 81.9999 35.2007 86.2835 35.2007L107.548 35.1953V34.2338L78.5102 6.2787Z" fill="black"/>
<path d="M78.5102 5.3172V26.5809C78.5102 30.8646 81.9999 34.2392 86.2835 34.2392L107.548 34.2338L78.5102 5.3172Z" fill="#DEDDDA"/>
<path opacity="0.2" d="M22.6924 83.4933C20.5616 83.4933 18.8462 85.2087 18.8462 87.3395V87.8202C18.8462 85.6895 20.5616 83.974 22.6924 83.974H107.308C109.439 83.974 111.154 85.6895 111.154 87.8202V87.3395C111.154 85.2087 109.439 83.4933 107.308 83.4933H22.6924Z" fill="black"/>
<path opacity="0.6" d="M18.8594 35.1758C18.8534 35.2158 18.8463 35.2554 18.8463 35.2959V35.5363C18.8463 36.5351 20.5617 37.3391 22.6924 37.3391H107.308C109.439 37.3391 111.154 36.5351 111.154 35.5363V35.2959C111.154 35.2554 111.146 35.2156 111.141 35.1758C111.01 36.1179 109.352 36.8585 107.308 36.8585H22.6924C20.6481 36.8585 18.991 36.1179 18.8593 35.1758H18.8594Z" fill="white"/>
<path d="M111.147 37.3375H18.8394V83.4916H111.147V37.3375Z" fill="#67666D"/>
<path opacity="0.2" d="M122.692 94.551C122.692 106.57 117.989 106.43 105.865 106.57H24.1347C12.0109 106.43 7.30772 106.57 7.30772 94.551V91.6659C7.30772 79.6466 12.0109 79.7868 24.1347 79.6466H105.865C117.989 79.7867 122.692 79.6466 122.692 91.6659V94.551Z" fill="white"/>
<path d="M92.8798 84.356H37.1202V88.8078H92.8798V84.356Z" fill="#979797"/>
<path d="M92.8798 93.2597H37.1202V97.7115H92.8798V93.2597Z" fill="#979797"/>
<path d="M92.8798 102.163H37.1202V106.615H92.8798V102.163Z" fill="#979797"/>
<path opacity="0.2" d="M107.299 71.0009C107.299 68.3455 105.146 66.1929 102.491 66.1929C99.8355 66.1929 97.6828 68.3455 97.6828 71.0009C97.6828 73.6563 99.8355 75.8089 102.491 75.8089C105.146 75.8089 107.299 73.6563 107.299 71.0009Z" fill="black"/>
<path d="M102.5 73.8779C104.094 73.8779 105.385 72.5864 105.385 70.9932C105.385 69.4001 104.094 68.1086 102.5 68.1086C100.907 68.1086 99.6158 69.4001 99.6158 70.9932C99.6158 72.5864 100.907 73.8779 102.5 73.8779Z" fill="#7EFF00" fill-opacity="0.514286"/>
<path opacity="0.5" d="M102.5 68.1086C100.902 68.1086 99.6158 69.3951 99.6158 70.9932C99.6158 71.0541 99.6213 71.1136 99.6249 71.1735C99.6924 70.0754 100.368 69.1495 101.321 68.7227C101.156 68.957 101.058 69.2417 101.058 69.5509C101.058 70.35 101.701 70.9932 102.5 70.9932C103.299 70.9932 103.943 70.35 103.943 69.5509C103.943 69.2417 103.844 68.957 103.68 68.7227C104.633 69.1495 105.308 70.0754 105.376 71.1735C105.38 71.1136 105.385 71.0541 105.385 70.9932C105.385 69.3951 104.098 68.1086 102.5 68.1086H102.5Z" fill="white"/>
<path opacity="0.2" d="M93.8524 71.0009C93.8524 68.3455 91.6998 66.1929 89.0444 66.1929C86.389 66.1929 84.2364 68.3455 84.2364 71.0009C84.2364 73.6563 86.389 75.8089 89.0444 75.8089C91.6998 75.8089 93.8524 73.6563 93.8524 71.0009Z" fill="black"/>
<path d="M91.9227 70.9864V70.9846C91.9227 69.3919 90.6316 68.1008 89.0389 68.1008H89.0371C87.4445 68.1008 86.1534 69.3919 86.1534 70.9846V70.9864C86.1534 72.579 87.4445 73.8701 89.0371 73.8701H89.0389C90.6316 73.8701 91.9227 72.579 91.9227 70.9864Z" fill="#F67000"/>
<path opacity="0.5" d="M89.0388 68.1086C87.4407 68.1086 86.1542 69.3951 86.1542 70.9932C86.1542 71.0541 86.1596 71.1135 86.1633 71.1735C86.2308 70.0754 86.9067 69.1494 87.8591 68.7227C87.6947 68.957 87.5965 69.2416 87.5965 69.5509C87.5965 70.3499 88.2397 70.9932 89.0388 70.9932C89.8378 70.9932 90.4811 70.3499 90.4811 69.5509C90.4811 69.2416 90.3828 68.957 90.2184 68.7227C91.1709 69.1494 91.8468 70.0754 91.9142 71.1735C91.918 71.1135 91.9233 71.0541 91.9233 70.9932C91.9233 69.3951 90.6368 68.1086 89.0387 68.1086H89.0388Z" fill="white"/>
<path opacity="0.2" d="M80.3878 71.0009C80.3878 68.3455 78.2352 66.1929 75.5798 66.1929C72.9244 66.1929 70.7718 68.3455 70.7718 71.0009C70.7718 73.6563 72.9244 75.8089 75.5798 75.8089C78.2352 75.8089 80.3878 73.6563 80.3878 71.0009Z" fill="black"/>
<path d="M75.5772 73.8779C77.1704 73.8779 78.4619 72.5864 78.4619 70.9932C78.4619 69.4001 77.1704 68.1086 75.5772 68.1086C73.9841 68.1086 72.6926 69.4001 72.6926 70.9932C72.6926 72.5864 73.9841 73.8779 75.5772 73.8779Z" fill="#F82D43"/>
<path opacity="0.5" d="M75.5772 68.1086C73.9792 68.1086 72.6926 69.3951 72.6926 70.9932C72.6926 71.0541 72.6981 71.1136 72.7018 71.1735C72.7692 70.0754 73.4451 69.1495 74.3976 68.7227C74.2332 68.957 74.1349 69.2417 74.1349 69.5509C74.1349 70.35 74.7782 70.9932 75.5772 70.9932C76.3763 70.9932 77.0196 70.35 77.0196 69.5509C77.0196 69.2417 76.9213 68.957 76.7569 68.7227C77.7094 69.1495 78.3853 70.0754 78.4527 71.1735C78.4564 71.1136 78.4619 71.0541 78.4619 70.9932C78.4619 69.3951 77.1753 68.1086 75.5772 68.1086H75.5772Z" fill="white"/>
<path opacity="0.2" d="M103.63 117.712C114.341 117.712 123.024 109.029 123.024 98.3176C123.024 87.6066 114.341 78.9236 103.63 78.9236C92.9194 78.9236 84.2364 87.6066 84.2364 98.3176C84.2364 109.029 92.9194 117.712 103.63 117.712Z" fill="black"/>
<path d="M103.63 116.499C114.341 116.499 123.024 107.816 123.024 97.1055C123.024 86.3945 114.341 77.7115 103.63 77.7115C92.9194 77.7115 84.2364 86.3945 84.2364 97.1055C84.2364 107.816 92.9194 116.499 103.63 116.499Z" fill="url(#paint2_linear)"/>
<path d="M101.206 84.9842V94.6812H91.5091V99.5297H101.206V109.227H106.055V99.5297H115.752V94.6812H106.055V84.9842H101.206Z" fill="url(#paint3_linear)"/>
<defs>
<filter id="filter0_f" x="3.30769" y="26.6084" width="123.385" height="84.9239" filterUnits="userSpaceOnUse" color-interpolation-filters="sRGB">
<feFlood flood-opacity="0" result="BackgroundImageFix"/>
<feBlend mode="normal" in="SourceGraphic" in2="BackgroundImageFix" result="shape"/>
<feGaussianBlur stdDeviation="2" result="effect1_foregroundBlur"/>
</filter>
<filter id="filter1_f" x="5.30769" y="27.6469" width="119.385" height="80.9239" filterUnits="userSpaceOnUse" color-interpolation-filters="sRGB">
<feFlood flood-opacity="0" result="BackgroundImageFix"/>
<feBlend mode="normal" in="SourceGraphic" in2="BackgroundImageFix" result="shape"/>
<feGaussianBlur stdDeviation="1" result="effect1_foregroundBlur"/>
</filter>
<filter id="filter2_f" x="18.4503" y="1.58727" width="93.0994" height="116.254" filterUnits="userSpaceOnUse" color-interpolation-filters="sRGB">
<feFlood flood-opacity="0" result="BackgroundImageFix"/>
<feBlend mode="normal" in="SourceGraphic" in2="BackgroundImageFix" result="shape"/>
<feGaussianBlur stdDeviation="2.00044" result="effect1_foregroundBlur"/>
</filter>
<linearGradient id="paint0_linear" x1="66.9233" y1="31.57" x2="66.9233" y2="104.647" gradientUnits="userSpaceOnUse">
<stop stop-color="white"/>
<stop offset="0.125" stop-color="white" stop-opacity="0.0980392"/>
<stop offset="0.925" stop-color="white" stop-opacity="0.0980392"/>
<stop offset="1" stop-color="white" stop-opacity="0.498039"/>
</linearGradient>
<linearGradient id="paint1_linear" x1="65.0003" y1="29.6469" x2="65.0003" y2="102.724" gradientUnits="userSpaceOnUse">
<stop stop-color="white"/>
<stop offset="0.125" stop-color="white" stop-opacity="0.0980392"/>
<stop offset="0.925" stop-opacity="0.0980392"/>
<stop offset="1" stop-opacity="0.498039"/>
</linearGradient>
<linearGradient id="paint2_linear" x1="84.2364" y1="97.1055" x2="123.024" y2="97.1055" gradientUnits="userSpaceOnUse">
<stop stop-color="#33D17A"/>
</linearGradient>
<linearGradient id="paint3_linear" x1="91.5091" y1="97.1055" x2="115.752" y2="97.1055" gradientUnits="userSpaceOnUse">
<stop stop-color="#F6F5F4"/>
</linearGradient>
</defs>
</svg>
